X:173
T:Goin' Across The Sea
C:Bill Monroe - Ashby Frank solo
N:From the CD "First Crossing" Transcribed by Mike Stangeland
R:bluegrass
L:1/8
Q:1/4=225
M:4/4
K:A
z8 | "A"DE EE EF A2 | "E"AB B[ec] [e2B2] [e2B2] | {c}Be Bc BA FE | "A"A=G [A2A2] [e2A2A2] [eA][eA] | 
[e2A2] [eA][eA] =cB Ac | BA F2 DE EA | "D"EF A=c BA F2 | DE EA E2 DE | EA E2 EF A2 | 
"E"B2 D2 BD DB | DA Bc BA FE | "A"A=G [A2A2] [e2A2A2] [eA][eA] | [e2A2] [eA][eA] =cB Ac | 
BA F2 DE EA | "D"EF A=c BA F2 | "A"DE EA [A2E2] de | "A"ee cA BA Bc | BA FB A2 de | 
ee cA Bc BA | "D"F2 [A2F2] [AF][AF] de | "A"ee cA BA Bc | BA FB A2 B=c | "D"cf ec BA F2 | 
"A"DE EA E2 DE |: "A"EA E2 EF A2 | "E"B2 D2 BD DB | DA Bc BA FE | "A"A=G [A2A2] [e2A2A2] [eA][eA] | 
[e2A2] [eA][eA] =cB Ac | BA F2 DE EA | "D"EF A=c BA F2 |1 D"A"E EA [A2E2] DE :|2 D"A"E EA [A4E4] | 
z8 | 


